spyder/images/dark/ArchiveFileIcon.svg

<svg width="24" height="24" viewBox="0 0 24 24" fill="none" xmlns="http://www.w3.org/2000/svg">
<path fill-rule="evenodd" clip-rule="evenodd" d="M13 9V3.5L18.5 9H13ZM6 2C4.89 2 4 2.89 4 4V20C4 20.5304 4.21071 21.0391 4.58579 21.4142C4.96086 21.7893 5.46957 22 6 22H18C18.5304 22 19.0391 21.7893 19.4142 21.4142C19.7893 21.0391 20 20.5304 20 20V8L14 2H6ZM6 4H8V6H6V4ZM8 8V6H10V8H8ZM8 10H6V8H8V10ZM8 12V10H10V12H8ZM8 14V12H6V14H8ZM8 14V16H10V14H8Z" fill="#FAFAFA"/>
</svg>

<svg xmlns="http://www.w3.org/2000/svg" width="24" height="24" fill="none"><path fill="#FAFAFA" fill-rule="evenodd" d="M13 9V3.5L18.5 9H13ZM6 2c-1.11 0-2 .89-2 2v16a2 2 0 0 0 2 2h12a2 2 0 0 0 2-2V8l-6-6H6Zm0 2h2v2H6V4Zm2 4V6h2v2H8Zm0 2H6V8h2v2Zm0 2v-2h2v2H8Zm0 2v-2H6v2h2Zm0 0v2h2v-2H8Z" clip-rule="evenodd"/></svg>
